public/assets/routes_avatar/landPriceManage.svg

<?xml version="1.0" encoding="UTF-8"?>
<svg width="60px" height="60px" viewBox="0 0 60 60" version="1.1" xmlns="http://www.w3.org/2000/svg" xmlns:xlink="http://www.w3.org/1999/xlink">
    <!-- Generator: Sketch 49.3 (51167) - http://www.bohemiancoding.com/sketch -->
    <title>土地价款-土地价款管理</title>
    <desc>Created with Sketch.</desc>
    <defs>
        <rect id="path-1" x="0" y="0" width="25" height="27" rx="2"></rect>
        <path d="M19,19.5939661 C19,19.9220045 19.2203312,20.1879321 19.4921234,20.1879321 C19.7639157,20.1879321 19.9842468,19.9220045 19.9842468,19.5939661 C19.9842468,19.2659277 19.7639157,19 19.4921234,19 C19.2203312,19 19,19.2659277 19,19.5939661 Z M24.7172243,19.867379 L20.8286681,19.867379 C20.6732196,19.867379 20.5466736,19.7146449 20.5466736,19.527027 C20.5466736,19.3394092 20.6732196,19.186675 20.8286681,19.186675 L24.7180055,19.186675 C24.873454,19.186675 25,19.3394092 25,19.527027 C24.9992189,19.7155877 24.873454,19.867379 24.7172243,19.867379 Z M19,22 C19,22.3280384 19.2203312,22.5939661 19.4921234,22.5939661 C19.7639157,22.5939661 19.9842468,22.3280384 19.9842468,22 C19.9842468,21.6719616 19.7639157,21.4060339 19.4921234,21.4060339 C19.2203312,21.4060339 19,21.6719616 19,22 Z M24.7172243,22.2743558 L20.8286681,22.2743558 C20.6732196,22.2743558 20.5466736,22.1216216 20.5466736,21.9340038 C20.5466736,21.7463859 20.6732196,21.5936518 20.8286681,21.5936518 L24.7180055,21.5936518 C24.873454,21.5936518 25,21.7463859 25,21.9340038 C24.9992189,22.1216216 24.873454,22.2743558 24.7172243,22.2743558 Z M19,24.4060339 C19,24.7340723 19.2203312,25 19.4921234,25 C19.7639157,25 19.9842468,24.7340723 19.9842468,24.4060339 C19.9842468,24.0779955 19.7639157,23.8120679 19.4921234,23.8120679 C19.2203312,23.8120679 19,24.0779955 19,24.4060339 Z M24.7172243,24.6803897 L20.8286681,24.6803897 C20.6732196,24.6803897 20.5466736,24.5276556 20.5466736,24.3400377 C20.5466736,24.1524199 20.6732196,23.9996857 20.8286681,23.9996857 L24.7180055,23.9996857 C24.873454,23.9996857 25,24.1524199 25,24.3400377 C24.9992189,24.5285984 24.873454,24.6803897 24.7172243,24.6803897 Z" id="path-2"></path>
    </defs>
    <g id="icon" stroke="none" stroke-width="1" fill="none" fill-rule="evenodd">
        <g id="土地价款-土地价款管理">
            <circle id="Oval-Copy" fill="#FC7615" cx="30" cy="30" r="30"></circle>
            <g id="Group-52" transform="translate(16.000000, 16.000000)">
                <g id="Rectangle-4">
                    <use fill="#FC7615" fill-rule="evenodd" xlink:href="#path-1"></use>
                    <rect stroke="#FFFFFF" stroke-width="1.5" x="0.75" y="0.75" width="23.5" height="25.5" rx="2"></rect>
                </g>
                <rect id="Rectangle-7-Copy-3" fill="#FFFFFF" x="12" y="17" width="5" height="1" rx="0.5"></rect>
                <circle id="Oval-2" fill="#FC7615" cx="21.5" cy="21.5" r="7.5"></circle>
                <g id="Shape" fill-rule="nonzero">
                    <use fill="#FFFFFF" fill-rule="evenodd" xlink:href="#path-2"></use>
                    <path stroke="#FFFFFF" stroke-width="0.2" d="M18.9,19.5939661 C18.9,19.214419 19.1605081,18.9 19.4921234,18.9 C19.8237387,18.9 20.0842468,19.214419 20.0842468,19.5939661 C20.0842468,19.9735131 19.8237387,20.2879321 19.4921234,20.2879321 C19.1605081,20.2879321 18.9,19.9735131 18.9,19.5939661 Z M24.7172243,19.967379 L20.8286681,19.967379 C20.6133966,19.967379 20.4466736,19.7661535 20.4466736,19.527027 C20.4466736,19.2879006 20.6133966,19.086675 20.8286681,19.086675 L24.7180055,19.086675 C24.933277,19.086675 25.1,19.2879006 25.0999991,19.5274413 C25.0990048,19.7674628 24.9330493,19.967379 24.7172243,19.967379 Z M18.9,22 C18.9,21.620453 19.1605081,21.3060339 19.4921234,21.3060339 C19.8237387,21.3060339 20.0842468,21.620453 20.0842468,22 C20.0842468,22.379547 19.8237387,22.6939661 19.4921234,22.6939661 C19.1605081,22.6939661 18.9,22.379547 18.9,22 Z M24.7172243,22.3743558 L20.8286681,22.3743558 C20.6133966,22.3743558 20.4466736,22.1731302 20.4466736,21.9340038 C20.4466736,21.6948773 20.6133966,21.4936518 20.8286681,21.4936518 L24.7180055,21.4936518 C24.933277,21.4936518 25.1,21.6948773 25.0999991,21.9344201 C25.0990025,22.1737935 24.9328291,22.3743558 24.7172243,22.3743558 Z M18.9,24.4060339 C18.9,24.0264869 19.1605081,23.7120679 19.4921234,23.7120679 C19.8237387,23.7120679 20.0842468,24.0264869 20.0842468,24.4060339 C20.0842468,24.785581 19.8237387,25.1 19.4921234,25.1 C19.1605081,25.1 18.9,24.785581 18.9,24.4060339 Z M24.7172243,24.7803897 L20.8286681,24.7803897 C20.6133966,24.7803897 20.4466736,24.5791642 20.4466736,24.3400377 C20.4466736,24.1009112 20.6133966,23.8996857 20.8286681,23.8996857 L24.7180055,23.8996857 C24.933277,23.8996857 25.1,24.1009112 25.0999991,24.340452 C25.0990048,24.5804735 24.9330493,24.7803897 24.7172243,24.7803897 Z"></path>
                </g>
                <path d="M22,28 C18.6862915,28 16,25.3137085 16,22 C16,18.6862915 18.6862915,16 22,16 C25.3137085,16 28,18.6862915 28,22 C28,25.3137085 25.3137085,28 22,28 Z M22,26.7586207 C24.6281136,26.7586207 26.7586207,24.6281136 26.7586207,22 C26.7586207,19.3718864 24.6281136,17.2413793 22,17.2413793 C19.3718864,17.2413793 17.2413793,19.3718864 17.2413793,22 C17.2413793,24.6281136 19.3718864,26.7586207 22,26.7586207 Z" id="Oval-3" fill="#FFFFFF" fill-rule="nonzero"></path>
                <path d="M17.0010511,11.0010511 L17.0010511,7.55277529 C17.0010511,7.26711076 17.232628,7.03553391 17.5182925,7.03553391 C17.8039571,7.03553391 18.0355339,7.26711076 18.0355339,7.55277529 L18.0355339,11.3458787 C18.0355339,11.5328941 17.9362824,11.6967281 17.7875799,11.7875799 C17.6967281,11.9362824 17.5328941,12.0355339 17.3458787,12.0355339 L13.5527753,12.0355339 C13.2671108,12.0355339 13.0355339,11.8039571 13.0355339,11.5182925 C13.0355339,11.232628 13.2671108,11.0010511 13.5527753,11.0010511 L17.0010511,11.0010511 Z" id="Combined-Shape" fill="#FFFFFF" transform="translate(15.535534, 9.535534) rotate(-135.000000) translate(-15.535534, -9.535534) "></path>
                <path d="M11.0012614,11.0012614 L11.0012614,6.86333034 C11.0012614,6.52053291 11.2791536,6.24264069 11.621951,6.24264069 C11.9647485,6.24264069 12.2426407,6.52053291 12.2426407,6.86333034 L12.2426407,11.4150545 C12.2426407,11.639473 12.1235388,11.8360737 11.9450959,11.9450959 C11.8360737,12.1235388 11.639473,12.2426407 11.4150545,12.2426407 L6.86333034,12.2426407 C6.52053291,12.2426407 6.24264069,11.9647485 6.24264069,11.621951 C6.24264069,11.2791536 6.52053291,11.0012614 6.86333034,11.0012614 L11.0012614,11.0012614 Z" id="Combined-Shape-Copy" fill="#FFFFFF" transform="translate(9.242641, 9.242641) rotate(-135.000000) translate(-9.242641, -9.242641) "></path>
                <rect id="Rectangle-7" fill="#FFFFFF" x="5" y="13" width="5" height="1" rx="0.5"></rect>
                <rect id="Rectangle-7-Copy-2" fill="#FFFFFF" x="5" y="17" width="5" height="1" rx="0.5"></rect>
                <rect id="Rectangle-7-Copy-4" fill="#FFFFFF" x="5" y="21" width="8" height="1" rx="0.5"></rect>
                <rect id="Rectangle-7-Copy" fill="#FFFFFF" x="12" y="13" width="5" height="1" rx="0.5"></rect>
            </g>
        </g>
    </g>
</svg>

<svg width="60" height="60" xmlns="http://www.w3.org/2000/svg" xmlns:xlink="http://www.w3.org/1999/xlink"><defs><rect id="a" x="0" y="0" width="25" height="27" rx="2"/><path d="M19 19.594c0 .328.22.594.492.594s.492-.266.492-.594c0-.328-.22-.594-.492-.594s-.492.266-.492.594zm5.717.273H20.83c-.156 0-.282-.152-.282-.34 0-.188.126-.34.282-.34h3.889c.155 0 .282.152.282.34 0 .189-.127.34-.283.34zM19 22c0 .328.22.594.492.594s.492-.266.492-.594c0-.328-.22-.594-.492-.594S19 21.672 19 22zm5.717.274H20.83c-.156 0-.282-.152-.282-.34 0-.188.126-.34.282-.34h3.889c.155 0 .282.152.282.34 0 .188-.127.34-.283.34zM19 24.406c0 .328.22.594.492.594s.492-.266.492-.594c0-.328-.22-.594-.492-.594s-.492.266-.492.594zm5.717.274H20.83c-.156 0-.282-.152-.282-.34 0-.188.126-.34.282-.34h3.889c.155 0 .282.152.282.34 0 .189-.127.34-.283.34z" id="b"/></defs><g fill="none" fill-rule="evenodd"><circle fill="#FC7615" cx="30" cy="30" r="30"/><g transform="translate(16 16)"><use fill="#FC7615" xlink:href="#a"/><rect stroke="#FFF" stroke-width="1.5" x=".75" y=".75" width="23.5" height="25.5" rx="2"/><rect fill="#FFF" x="12" y="17" width="5" height="1" rx=".5"/><circle fill="#FC7615" cx="21.5" cy="21.5" r="7.5"/><g fill-rule="nonzero"><use fill="#FFF" fill-rule="evenodd" xlink:href="#b"/><path stroke="#FFF" stroke-width=".2" d="M18.9 19.594c0-.38.26-.694.592-.694.332 0 .592.314.592.694 0 .38-.26.694-.592.694-.331 0-.592-.314-.592-.694zm5.817.373H20.83c-.216 0-.382-.2-.382-.44s.166-.44.382-.44h3.889c.215 0 .382.2.382.44-.001.24-.167.44-.383.44zM18.9 22c0-.38.26-.694.592-.694.332 0 .592.314.592.694 0 .38-.26.694-.592.694-.331 0-.592-.314-.592-.694zm5.817.374H20.83c-.216 0-.382-.2-.382-.44s.166-.44.382-.44h3.889c.215 0 .382.2.382.44-.001.24-.167.44-.383.44zM18.9 24.406c0-.38.26-.694.592-.694.332 0 .592.314.592.694 0 .38-.26.694-.592.694-.331 0-.592-.314-.592-.694zm5.817.374H20.83c-.216 0-.382-.2-.382-.44s.166-.44.382-.44h3.889c.215 0 .382.2.382.44-.001.24-.167.44-.383.44z"/></g><path d="M22 28a6 6 0 1 1 0-12 6 6 0 0 1 0 12zm0-1.241a4.759 4.759 0 1 0 0-9.518 4.759 4.759 0 0 0 0 9.518z" fill="#FFF" fill-rule="nonzero"/><path d="M15.536 7.463l-2.439 2.438a.517.517 0 0 1-.731-.731l2.682-2.682a.517.517 0 0 1 .488-.137c.169-.041.355.004.487.137l2.682 2.682a.517.517 0 1 1-.731.731l-2.438-2.438z" fill="#FFF"/><path d="M9.243 6.756L6.317 9.682a.62.62 0 1 1-.878-.878l3.218-3.219a.62.62 0 0 1 .586-.164.62.62 0 0 1 .585.164l3.218 3.219a.62.62 0 1 1-.877.878L9.243 6.756z" fill="#FFF"/><rect fill="#FFF" x="5" y="13" width="5" height="1" rx=".5"/><rect fill="#FFF" x="5" y="17" width="5" height="1" rx=".5"/><rect fill="#FFF" x="5" y="21" width="8" height="1" rx=".5"/><rect fill="#FFF" x="12" y="13" width="5" height="1" rx=".5"/></g></g></svg>
